**harmony	**harte	**kern	**silbe	**kern.1	**silbe.1	**rhyme	**timestamp	**phrase
*M4/4	*M4/4	*ICvox	*	*ICvox	*	*	*	*
*	*	*VRlead	*	*VRbacking*VRharmonize	*	*	*	*
*	*	*Hstimme	*	*Nstimme	*	*	*	*
*B-:	*B-:	*B-:	*	*B-:	*	*	*	*
*	*	*M4/4	*	*M4/4	*	*	*	*
*	*	*clefF4	*	*clefF4	*	*	*	*
1r;	1r	r;	.	r;	.	.	0	.
=1	=1	=1	=1	=1	=1	=1	=1	=1
*>Letter>A	*>Letter>A	*>Letter>A	*>Letter>A	*>Letter>A	*>Letter>A	*>Letter>A	*>Letter>A	*>Letter>A
*>Label>Intro	*>Label>Intro	*>Label>Intro	*>Label>Intro	*>Label>Intro	*>Label>Intro	*>Label>Intro	*>Label>Intro	*>Label>Intro
1N	N	1r	.	1r	.	.	0.139	newline
=2	=2	=2	=2	=2	=2	=2	=2	=2
1N	N	1r	.	1r	.	.	2.058	.
=3	=3	=3	=3	=3	=3	=3	=3	=3
1N	N	1r	.	1r	.	.	3.976	.
=4	=4	=4	=4	=4	=4	=4	=4	=4
1N	N	1r	.	1r	.	.	5.895	.
=5	=5	=5	=5	=5	=5	=5	=5	=5
1FMm	F:11	1r	.	1r	.	.	7.813	newline
=6	=6	=6	=6	=6	=6	=6	=6	=6
1FMm	F:11	1r	.	1r	.	.	9.723	.
=7	=7	=7	=7	=7	=7	=7	=7	=7
1FMm	F:11	1r	.	1r	.	.	11.632	.
=8	=8	=8	=8	=8	=8	=8	=8	=8
.	.	8e-q	_	.	.	.	.	.
1FMm	F:11	[1f	Ah	1r	.	.	13.542	.
=9	=9	=9	=9	=9	=9	=9	=9	=9
*	*	*	*	*clefG2	*	*	*	*
.	.	.	.	16gQ	_	.	.	.
.	.	.	.	16aQ	_	.	.	.
1FMm	F:11	1f_	_	[1b-	Ah	.	15.451	newline
=10	=10	=10	=10	=10	=10	=10	=10	=10
1FMm	F:11	1f]	_	1b-]	_	.	17.305	.
=11	=11	=11	=11	=11	=11	=11	=11	=11
1B-M	B-:maj	8f	la	8b-	la	.	19.159	newline
.	.	8d	da	8b-	da	.	.	.
.	.	8e-	da	8b-	da	.	.	.
.	.	[8f	da,	[8b-	da,	.	.	.
.	.	8f]	_	8b-]	_	.	.	.
.	.	8d	da	8b-	da	.	.	.
.	.	8e-	da	8b-	da	.	.	.
.	.	[8f	da,	[8a	da,	.	.	.
=12	=12	=12	=12	=12	=12	=12	=12	=12
1B-MM	B-:maj7	8f]	_	8a]	_	.	21.077	.
.	.	8d	da	8a	da	.	.	.
.	.	8e-	da	8a	da	.	.	.
.	.	[8f	da,	[8a	da,	.	.	.
.	.	8f]	_	8a]	_	.	.	.
.	.	8e-	da	8a	da	.	.	.
.	.	8d	da	8a	da	.	.	.
.	.	[8c	da,	[8g	da,	.	.	.
=13	=13	=13	=13	=13	=13	=13	=13	=13
1Cmm	C:min7	8c]	_	8g]	_	.	22.995	.
.	.	8B-	da	8f	da	.	.	.
.	.	8A	da	8f	da	.	.	.
.	.	8Gq	_	.	.	.	.	.
.	.	[8F	da	[8f	da	.	.	.
.	.	8F]	_	8f]	_	.	.	.
.	.	4F	da	4e-	da	.	.	.
.	.	8r	.	8r	.	.	.	.
=14	=14	=14	=14	=14	=14	=14	=14	=14
1FMm	F:7	1r	.	1r	.	.	24.914	.
=15	=15	=15	=15	=15	=15	=15	=15	=15
1Cmm	C:min7	8c	da	8e-	da	.	26.832	newline
.	.	8c	da	8e-	da	.	.	.
.	.	8c	da	8e-	da	.	.	.
.	.	[8c	da,	[8e-	da,	.	.	.
.	.	8c]	_	8e-]	_	.	.	.
.	.	8c	da	4f	da	.	.	.
.	.	8c	da	.	.	.	.	.
.	.	[8c	da,	[8e-	da,	.	.	.
=16	=16	=16	=16	=16	=16	=16	=16	=16
1FMm	F:7	8c]	_	8e-]	_	.	28.768	.
.	.	4B-	da	4e-	da	.	.	.
.	.	8B-	da	8e-	da	.	.	.
.	.	8r	.	8r	.	.	.	.
.	.	4B-	da	4e-	da	.	.	.
.	.	8A	da	8e-	da	.	.	.
=17	=17	=17	=17	=17	=17	=17	=17	=17
1B-M	B-:maj	6G	da	6e-	da	.	30.704	.
.	.	6F	da	6d	da	.	.	.
.	.	6F	da	6d	da	.	.	.
.	.	4F	da	4d	da	.	.	.
.	.	4r	.	4r	.	.	.	.
=18	=18	=18	=18	=18	=18	=18	=18	=18
1B-M	B-:maj	4r	.	1r	.	.	32.64	.
.	.	8B-	Goo-	.	.	.	.	.
.	.	8A	-dm-	.	.	.	.	.
.	.	8A	-mor-	.	.	.	.	.
.	.	8B-q	_	.	.	.	.	.
.	.	[4.c	-ning	.	.	.	.	.
=19	=19	=19	=19	=19	=19	=19	=19	=19
*>Letter>B	*>Letter>B	*>Letter>B	*>Letter>B	*>Letter>B	*>Letter>B	*>Letter>B	*>Letter>B	*>Letter>B
*>Label>Verse	*>Label>Verse	*>Label>Verse	*>Label>Verse	*>Label>Verse	*>Label>Verse	*>Label>Verse	*>Label>Verse	*>Label>Verse
2E-M	E-:maj	8c]	_	1r	.	.	34.576	newline
.	.	8Fq	_	.	.	.	.	.
.	.	4G	star-	.	.	.	.	.
.	.	[8F	-shine	.	.	.	.	.
2FM	F:maj	4F]	_	.	.	.	35.54	.
.	.	4r	.	.	.	.	.	.
=20	=20	=20	=20	=20	=20	=20	=20	=20
2E-M	E-:maj	4r	.	1r	.	.	36.504	.
.	.	8.r	.	.	.	.	.	.
.	.	16~E-	The	.	.	.	.	.
2FM	F:maj	8.c	earth	.	.	.	37.468	.
.	.	[16d	says	.	.	.	.	.
.	.	4d_	_	.	.	.	.	.
=21	=21	=21	=21	=21	=21	=21	=21	=21
2E-M	E-:maj	8.d]	_	1r	.	.	38.432	.
.	.	16c	hel-	.	.	.	.	.
.	.	[4e-	-lo!	.	.	A	.	.
2FM	F:maj	4e-]	_	.	.	.	39.396	.
.	.	4r	.	.	.	.	.	.
=22	=22	=22	=22	=22	=22	=22	=22	=22
2E-M	E-:maj	4r	.	1r	.	.	40.36	.
.	.	8c	You	.	.	.	.	.
.	.	[8c	twin	.	.	.	.	.
2FM	F:maj	8c]	_	.	.	.	41.324	.
.	.	4d	kle	.	.	.	.	.
.	.	[8e-	a	.	.	.	.	.
=23	=23	=23	=23	=23	=23	=23	=23	=23
2E-M	E-:maj	8e-]	_	1r	.	.	42.288	newline
.	.	8d	bove	.	.	.	.	.
.	.	8c	_	.	.	.	.	.
.	.	[8c	us	.	.	.	.	.
2FM	F:maj	4c]	_	.	.	.	43.237	.
.	.	4r	.	.	.	.	.	.
=24	=24	=24	=24	=24	=24	=24	=24	=24
2E-M	E-:maj	4r	.	1r	.	.	44.185	.
.	.	8B-	we	.	.	.	.	.
.	.	[8A	twin	.	.	.	.	.
2FM	F:maj	8A]	_	.	.	.	45.133	.
.	.	[4.B-	kle	.	.	.	.	.
=25	=25	=25	=25	=25	=25	=25	=25	=25
1B-M	B-:maj	8B-]	_	1r	.	.	46.081	.
.	.	16B-	be-	.	.	.	.	.
.	.	[16F	-low	.	.	A	.	.
.	.	4F_	_	.	.	.	.	.
.	.	4F]	_	.	.	.	.	.
.	.	4r	.	.	.	.	.	.
=26	=26	=26	=26	=26	=26	=26	=26	=26
1FM	F:maj	4r	.	1r	.	.	47.978	.
.	.	8B-	Good-	.	.	.	.	.
.	.	8A	-dm-	.	.	.	.	.
.	.	8A	-morn	.	.	.	.	.
.	.	8B-q	_	.	.	.	.	.
.	.	[4.c	ning	.	.	.	.	.
=27	=27	=27	=27	=27	=27	=27	=27	=27
2E-M	E-:maj	8c]	_	8r	.	.	49.875	newline
.	.	8Fq	_	8fq	_	.	.	.
.	.	4G	star-	4g	Star-	.	.	.
.	.	[8F	-shine	[8f	-shine!	.	.	.
2FM	F:maj	4F]	_	2f_	_	.	50.842	.
.	.	4r	.	.	.	.	.	.
=28	=28	=28	=28	=28	=28	=28	=28	=28
2E-M	E-:maj	4r	.	1f_	_	.	51.809	.
.	.	8r	.	.	.	.	.	.
.	.	8c	You	.	.	.	.	.
2FM	F:maj	8c	lead	.	.	.	52.777	.
.	.	[8d	us	.	.	.	.	.
.	.	8d]	_	.	.	.	.	.
.	.	8c	a-	.	.	.	.	.
=29	=29	=29	=29	=29	=29	=29	=29	=29
2E-M	E-:maj	2.e-	-long	2f_	_	B	53.744	.
2FM	F:maj	.	.	8f]	_	.	54.712	.
.	.	.	.	8r	.	.	.	.
.	.	4r	.	4r	.	.	.	.
=30	=30	=30	=30	=30	=30	=30	=30	=30
2E-M	E-:maj	4r	.	4r	.	.	55.679	.
.	.	4c	My	4f	My	.	.	.
2DMm	D:7	4d	love	4f	love	.	56.646	.
.	.	4e-	and	4g-	and	.	.	.
=31	=31	=31	=31	=31	=31	=31	=31	=31
.	.	.	.	8fq	_	.	.	.
2Gm	G:min	4d	me	4g	me	C	57.614	newline
.	.	8d	as	8g	as	.	.	.
.	.	8c	_	8f	_	.	.	.
2B-M	B-:maj	8d	we	8g	we	C	58.56	.
.	.	8c	_	8f	_	.	.	.
.	.	4B-	sing-	4d	sing-	C	.	.
=32	=32	=32	=32	=32	=32	=32	=32	=32
*	*	*	*	*clefF4	*	*	*	*
2E-M	E-:maj	2B-	-ing	2e-	-ing	c	59.506	.
2B-m	B-:min	4r	.	4r	.	.	60.452	.
.	.	4F	our	4F	our	.	.	.
=33	=33	=33	=33	=33	=33	=33	=33	=33
*	*	*	*	*clefG2	*	*	*	*
2CMm	C:7	4G	ear-	4f-	ear-	.	61.398	.
.	.	4B-	-ly	4f-	-ly	.	.	.
2FMm	F:7	4A	mor-	4e-	mor-	.	62.344	.
.	.	4c	-ning	4e-	-ning	.	.	.
=34	=34	=34	=34	=34	=34	=34	=34	=34
1B-M	B-:maj	8B-	sing-	8d	sing-	C	63.29	.
.	.	8A	-ging	8c	-ging	c	.	.
.	.	[4B-	song	[4d	song	B	.	.
.	.	4B-]	_	4d]	_	.	.	.
.	.	8r	.	8r	.	.	.	.
.	.	8f-	Gli	8f-	Gli	.	.	.
=35	=35	=35	=35	=35	=35	=35	=35	=35
*>Letter>C	*>Letter>C	*>Letter>C	*>Letter>C	*>Letter>C	*>Letter>C	*>Letter>C	*>Letter>C	*>Letter>C
*>Label>Chorus	*>Label>Chorus	*>Label>Chorus	*>Label>Chorus	*>Label>Chorus	*>Label>Chorus	*>Label>Chorus	*>Label>Chorus	*>Label>Chorus
1B-M	B-:maj	8f	_	8f	_	.	65.181	newline
.	.	8f	ddy	8f	ddy	c	.	.
.	.	8f	gloop	8f	gloop	.	.	.
.	.	8r	.	8r	.	.	.	.
.	.	8f	gloo-	8f	gloo-	.	.	.
.	.	8f	-py	8f	-py	c	.	.
.	.	8r	.	8r	.	.	.	.
.	.	8f-	ni	8f-	ni	.	.	.
=36	=36	=36	=36	=36	=36	=36	=36	=36
1B-M	B-:maj	8f	_	8f	_	.	67.115	.
.	.	8f	bby	8f	bby	c	.	.
.	.	8f	no-	8f	no-	.	.	.
.	.	8f	-bby	8f	-bby	c	.	.
.	.	8e-	noo-	8e-	noo-	.	.	.
.	.	8d	-by	8d	-by	c	.	.
.	.	8c	la	8c	la	B	.	.
.	.	[8B-	la	[8B-	la	B	.	.
=37	=37	=37	=37	=37	=37	=37	=37	=37
2Cmm	C:min7	8B-]	_	8B-]	_	.	69.048	.
.	.	4A	la	4A	la	B	.	.
.	.	[8F	lo	[8F	lo	A	.	.
2FMm	F:7	8F]	_	8F]	_	.	70.015	.
.	.	[4.F	lo	4.F	lo	A	.	.
=38	=38	=38	=38	=38	=38	=38	=38	=38
2Cmm	C:min7	4.F]	_	1r	.	.	70.982	.
.	.	8r	.	.	.	.	.	.
2FMm	F:7	2r	.	.	.	.	71.949	.
=39	=39	=39	=39	=39	=39	=39	=39	=39
1FMm	F:7	8c	Sa-	8c	Sa-	.	72.915	newline
.	.	8c	-bby	8c	-bby	c	.	.
.	.	8c	si-	8c	si-	.	.	.
.	.	8c	-bby	8c	-bby	c	.	.
.	.	8c	sab-	8c	sab-	.	.	.
.	.	8c	-ba	8c	-ba	b	.	.
.	.	8r	.	8r	.	.	.	.
.	.	8B-q	_	8B-q	_	.	.	.
.	.	[8c	noo	[8c	noo	A	.	.
=40	=40	=40	=40	=40	=40	=40	=40	=40
1FMm	F:7	8c]	_	8c]	_	.	74.819	.
.	.	8c	by	8c	by	.	.	.
.	.	8c	ab-	8c	ab-	.	.	.
.	.	8c	-ba	8c	-ba	b	.	.
.	.	8cq	_	8cq	_	.	.	.
.	.	4B-	dab-	4B-	dab-	.	.	.
.	.	8A	-ba	8A	-ba	b	.	.
.	.	[8F	le	[8F	le	.	.	.
=41	=41	=41	=41	=41	=41	=41	=41	=41
1B-M	B-:maj	8F]	_	8F]	_	.	76.723	.
.	.	4F	le	4F	le	.	.	.
.	.	8Fq	_	8Fq	_	.	.	.
.	.	[8G	lo	[8G	lo	A	.	.
.	.	8G]	_	8G]	_	.	.	.
.	.	[4.F	lo	4.F	lo	A	.	.
=42	=42	=42	=42	=42	=42	=42	=42	=42
1B-Mm	B-:7	4F]	_	1r	.	.	78.628	.
.	.	4r	.	.	.	.	.	.
.	.	2r	.	.	.	.	.	.
=43	=43	=43	=43	=43	=43	=43	=43	=43
2E-M	E-:maj	8G	Doo-	8G	_	.	80.532	newline
.	.	8G	-by	8G	_	c	.	.
.	.	8G	oo-	8G	_	.	.	.
.	.	8G	-by	8G	_	c	.	.
2DMm	D:7	8A	wal-	8A	_	.	81.496	.
.	.	8c	-la	8c	_	d	.	.
.	.	8r	.	8r	.	.	.	.
.	.	8Aq	_	8Aq	_	.	.	.
.	.	[8B-	doo	[8B-	_	.	.	.
=44	=44	=44	=44	=44	=44	=44	=44	=44
2Gm	G:min	8B-]	_	8B-]	_	.	82.46	.
.	.	8B-	by	8B-	_	c	.	.
.	.	8B-	ab-	8B-	_	.	.	.
.	.	8B-	-ba	8B-	_	b	.	.
2Cm	C:min	8c	dab-	8c	_	(B	83.425	.
.	.	8e-	-ba	8e-	_	b)	.	.
.	.	4r	.	4r	.	.	.	.
=45	=45	=45	=45	=45	=45	=45	=45	=45
*	*	*	*	*clefG2	*	*	*	*
2B-M	B-:maj	8d	ear-	8f	_	.	84.389	.
.	.	8d	-ly	8f	_	.	.	.
.	.	16cQ	_	.	.	.	.	.
.	.	16dQ	_	.	.	.	.	.
.	.	8c	mor-	8f	_	.	.	.
.	.	8B-	-ning	8f	_	c	.	.
2FMm	F:7	8c	sing-	8f	_	C	85.353	.
.	.	4B-	-ing	4f	_	c	.	.
.	.	8B-	song	8d	_	B	.	.
=46	=46	=46	=46	=46	=46	=46	=46	=46
1B-M	B-:maj	4r	.	1r	.	.	86.317	.
.	.	8B-	Good-	.	.	.	.	.
.	.	8A	-dm-	.	.	.	.	.
.	.	8A	-mor	.	.	.	.	.
.	.	8B-q	_	.	.	.	.	.
.	.	[4.c	ning,	.	.	.	.	.
=47	=47	=47	=47	=47	=47	=47	=47	=47
*>Letter>B	*>Letter>B	*>Letter>B	*>Letter>B	*>Letter>B	*>Letter>B	*>Letter>B	*>Letter>B	*>Letter>B
*>Label>Verse	*>Label>Verse	*>Label>Verse	*>Label>Verse	*>Label>Verse	*>Label>Verse	*>Label>Verse	*>Label>Verse	*>Label>Verse
2E-M	E-:maj	8c]	_	4r	.	.	88.246	newline
.	.	4F	star-	.	.	.	.	.
.	.	.	.	4F	Star	.	.	.
.	.	[8F	-shine	.	.	D	.	.
2FM	F:maj	4F]	_	2g	_	.	89.233	.
.	.	4r	.	.	.	.	.	.
=48	=48	=48	=48	=48	=48	=48	=48	=48
2E-M	E-:maj	4r	.	[1f	shine	.	90.219	.
.	.	8r	.	.	.	.	.	.
.	.	8c	There's	.	.	.	.	.
2FM	F:maj	6c	love	.	.	.	91.206	.
.	.	6d	in	.	.	.	.	.
.	.	[6c	your	.	.	.	.	.
=49	=49	=49	=49	=49	=49	=49	=49	=49
2E-M	E-:maj	4c]	_	1f]	_	.	92.193	.
.	.	[4e-	skies	.	.	D	.	.
2FM	F:maj	4.e-]	_	.	.	.	93.179	.
.	.	8r	.	.	.	.	.	.
=50	=50	=50	=50	=50	=50	=50	=50	=50
*	*	*	*	*clefG2	*	*	*	*
2E-M	E-:maj	4r	.	4r	.	.	94.166	.
.	.	8c	re-	8f	re-	.	.	.
.	.	[8c	-flec	[8f	-flec	.	.	.
2FM	F:maj	8c]	_	8f]	_	.	95.153	.
.	.	4d	ting	4f	ting	.	.	.
.	.	[8e-	the	[8f	the	.	.	.
=51	=51	=51	=51	=51	=51	=51	=51	=51
2E-M	E-:maj	8e-]	_	8f]	_	.	96.139	newline
.	.	8d	sun	8f	sun	.	.	.
.	.	8c	_	8f	_	.	.	.
.	.	[8c	light	[8f	light	D	.	.
2FM	F:maj	8c]	_	8f]	_	.	97.076	.
.	.	8r	.	8r	.	.	.	.
.	.	4r	.	4r	.	.	.	.
=52	=52	=52	=52	=52	=52	=52	=52	=52
2E-M	E-:maj	4r	.	4r	.	.	98.012	.
.	.	8B-	in	8f	in	.	.	.
.	.	[8A	my	[8f	my	.	.	.
2FM	F:maj	6A]	_	6f]	_	.	98.949	.
.	.	6B-	lo-	6f	lo-	.	.	.
.	.	[6F	-ver's	[6e-	-ver's	.	.	.
=53	=53	=53	=53	=53	=53	=53	=53	=53
1B-M	B-:maj	8F]	_	8e-]	_	.	99.885	.
.	.	[8F	eyes	[8d	eyes	D	.	.
.	.	4F_	_	4d]	_	.	.	.
.	.	4F]	_	8e-	_	.	.	.
.	.	.	.	8d	_	.	.	.
.	.	4r	.	8c	_	.	.	.
.	.	.	.	[8c	_	.	.	.
=54	=54	=54	=54	=54	=54	=54	=54	=54
1FM	F:maj	4r	.	8c]	_	.	101.758	.
.	.	.	.	8r	.	.	.	.
.	.	8B-	Good-	4r	.	.	.	.
.	.	8A	-dm-	.	.	.	.	.
.	.	8A	-mor	2r	.	.	.	.
.	.	8Fq	_	.	.	.	.	.
.	.	[4.G	ning,	.	.	.	.	.
=55	=55	=55	=55	=55	=55	=55	=55	=55
2E-M	E-:maj	8G]	_	8r	.	.	103.632	newline
.	.	8Fq	_	8fq	_	.	.	.
.	.	4G	star-	4g	Star-	.	.	.
.	.	[8F	-shine	[8f	-shine	D	.	.
2FM	F:maj	4F]	_	2f_	_	.	104.606	.
.	.	4r	.	.	.	.	.	.
=56	=56	=56	=56	=56	=56	=56	=56	=56
2E-M	E-:maj	4r	.	1f_	_	.	105.58	.
.	.	8r	.	.	.	.	.	.
.	.	8c	So	.	.	.	.	.
2FM	F:maj	8c	hap-	.	.	.	106.554	.
.	.	[8d	-py	.	.	.	.	.
.	.	4d_	_	.	.	.	.	.
=57	=57	=57	=57	=57	=57	=57	=57	=57
2E-M	E-:maj	8d]	_	2f_	_	.	107.529	.
.	.	16E-	to	.	.	.	.	.
.	.	[16e-	be	.	.	C	.	.
.	.	4e-_	_	.	.	.	.	.
2FM	F:maj	8e-]	_	4.f]	_	.	108.503	.
.	.	8r	.	.	.	.	.	.
.	.	4r	.	.	.	.	.	.
.	.	.	.	8r	.	.	.	.
=58	=58	=58	=58	=58	=58	=58	=58	=58
2E-M	E-:maj	4r	.	4r	.	.	109.477	.
.	.	4c	my	4f	my	.	.	.
2DMm	D:7	4d	love	4f	love	.	110.451	.
.	.	4e-	and	4g-	and	.	.	.
=59	=59	=59	=59	=59	=59	=59	=59	=59
.	.	8cq	_	8fq	_	.	.	.
2Gm	G:min	4d	me	4g	me	C	111.426	newline
.	.	8d	as	8g	as	.	.	.
.	.	8c	_	8f	_	.	.	.
2B-M	B-:maj	8d	we	8g	we	C	112.37	.
.	.	8c	_	8f	_	.	.	.
.	.	4B-	sing-	4d	sing-	(C	.	.
=60	=60	=60	=60	=60	=60	=60	=60	=60
2E-M	E-:maj	2B-	-ing	2e-	-ing	c)	113.315	.
2B-m	B-:min	4r	.	4r	.	.	114.259	.
.	.	4F	our	4B-	our	.	.	.
=61	=61	=61	=61	=61	=61	=61	=61	=61
2CMm	C:7	4G	ear-	4f-	ear-	.	115.204	.
.	.	4B-	-ly	4f-	-ly	c	.	.
2FMm	F:7	4A	mor-	4e-	mor-	.	116.148	.
.	.	4c	-ning	4e-	-ning	c	.	.
=62	=62	=62	=62	=62	=62	=62	=62	=62
1B-M	B-:maj	8B-	sing-	8d	sing-	(C	117.093	.
.	.	8A	-ing	8c	-ing	c)	.	.
.	.	[4B-	song	[4d	song	B	.	.
.	.	4B-]	_	4d]	_	.	.	.
.	.	4r	.	4r	.	.	.	.
=63	=63	=63	=63	=63	=63	=63	=63	=63
*>Letter>C	*>Letter>C	*>Letter>C	*>Letter>C	*>Letter>C	*>Letter>C	*>Letter>C	*>Letter>C	*>Letter>C
*>Label>Chorus	*>Label>Chorus	*>Label>Chorus	*>Label>Chorus	*>Label>Chorus	*>Label>Chorus	*>Label>Chorus	*>Label>Chorus	*>Label>Chorus
1B-M	B-:maj	8f	Glid-	8f	Glid-	.	118.982	newline
.	.	8f	-dy	8f	-dy	c	.	.
.	.	8f	gloop	8f	gloop	.	.	.
.	.	8r	.	8r	.	.	.	.
.	.	8f	gloo-	8f	gloo-	.	.	.
.	.	8f	-py	8f	-py	c	.	.
.	.	8r	.	8r	.	.	.	.
.	.	8f-	ni	8f-	ni	.	.	.
=64	=64	=64	=64	=64	=64	=64	=64	=64
1B-M	B-:maj	8f	_	8f	_	.	120.912	.
.	.	8f	bby	8f	bby	c	.	.
.	.	8f	no-	8f	no-	.	.	.
.	.	8f	-bby	8f	-bby	c	.	.
.	.	8e-	noo-	8e-	noo-	.	.	.
.	.	8d	-by	8d	-by	c	.	.
.	.	8c	la	8c	la	B	.	.
.	.	[8B-	la	[8B-	la	B	.	.
=65	=65	=65	=65	=65	=65	=65	=65	=65
2Cmm	C:min7	8B-]	_	8B-]	_	.	122.841	.
.	.	4A	la	4A	la	B	.	.
.	.	[8F	lo	[8F	lo	A	.	.
2FMm	F:7	8F]	_	8F]	_	.	123.806	.
.	.	[4.F	lo	4.F	lo	A	.	.
=66	=66	=66	=66	=66	=66	=66	=66	=66
2Cmm	C:min7	4F]	_	1r	.	.	124.771	.
.	.	4r	.	.	.	.	.	.
2FMm	F:7	2r	.	.	.	.	125.736	.
=67	=67	=67	=67	=67	=67	=67	=67	=67
1FMm	F:7	8c	Sa-	8c	Sa-	.	126.7	newline
.	.	8c	-bby	8c	-bby	c	.	.
.	.	8c	si-	8c	si-	.	.	.
.	.	8c	-bby	8c	-bby	c	.	.
.	.	8c	sab-	8c	sab-	.	.	.
.	.	8c	-ba	8c	-ba	b	.	.
.	.	8r	.	8r	.	.	.	.
.	.	8B-q	_	8B-q	_	.	.	.
.	.	[8c	noo	[8c	noo	.	.	.
=68	=68	=68	=68	=68	=68	=68	=68	=68
1FMm	F:7	8c]	_	8c]	_	.	128.606	.
.	.	8c	by	8c	by	c	.	.
.	.	8c	ab-	8c	ab-	.	.	.
.	.	8c	-ba	8c	-ba	b	.	.
.	.	8cq	_	8cq	_	.	.	.
.	.	4B-	dab-	4B-	dab-	.	.	.
.	.	8A	-ba	8A	-ba	b	.	.
.	.	[8F	le	[8F	le	C	.	.
=69	=69	=69	=69	=69	=69	=69	=69	=69
1B-M	B-:maj	8F]	_	8F]	_	.	130.512	.
.	.	4F	le	4F	le	C	.	.
.	.	8F	lo	8F	lo	a	.	.
.	.	8r	.	8r	.	.	.	.
.	.	[4.F	lo	4.F	lo	a	.	.
=70	=70	=70	=70	=70	=70	=70	=70	=70
1B-Mm	B-:7	8F]	_	1r	.	.	132.418	.
.	.	8r	.	.	.	.	.	.
.	.	4r	.	.	.	.	.	.
.	.	2r	.	.	.	.	.	.
=71	=71	=71	=71	=71	=71	=71	=71	=71
2E-M	E-:maj	8G	Doo-	8G	Doo-	.	134.324	newline
.	.	8G	-by	8G	-by	c	.	.
.	.	8G	oo-	8G	oo-	.	.	.
.	.	8G	-by	8G	-by	c	.	.
2DMm	D:7	8A	wal-	8A	wal-	.	135.291	.
.	.	8c	-la	8c	-la	b	.	.
.	.	8r	.	8r	.	.	.	.
.	.	8Aq	_	8Aq	_	.	.	.
.	.	[8B-	doo	[8B-	doo	.	.	.
=72	=72	=72	=72	=72	=72	=72	=72	=72
2Gm	G:min	8B-]	_	8B-]	_	.	136.258	.
.	.	8B-	by	8B-	by	c	.	.
.	.	8B-	ab-	8B-	ab-	.	.	.
.	.	8B-	-ba	8B-	-ba	b	.	.
2Cm	C:min	8c	dab-	8c	dab-	.	137.225	.
.	.	8e-	-ba	8e-	-ba	b	.	.
.	.	4r	.	8r	.	.	.	.
.	.	.	.	16e-	ear	.	.	.
.	.	.	.	[16f	_	.	.	.
=73	=73	=73	=73	=73	=73	=73	=73	=73
2B-M	B-:maj	8d	ear-	8f]	_	.	138.192	.
.	.	8d	-ly	8f	ly	c	.	.
.	.	16cQ	_	.	.	.	.	.
.	.	16dQ	_	.	.	.	.	.
.	.	8c	mor-	8f	mor-	.	.	.
.	.	8B-	-ning	8f	-ning	c	.	.
2FMm	F:7	8c	sing-	8f	sing-	(C	139.159	.
.	.	4B-	-ing	4f	-ing	c)	.	.
.	.	8B-	song!	8d	song!	B	.	.
=74	=74	=74	=74	=74	=74	=74	=74	=74
1B-M	B-:maj	1r	.	1r	.	.	140.126	.
=75	=75	=75	=75	=75	=75	=75	=75	=75
*>Letter>D	*>Letter>D	*>Letter>D	*>Letter>D	*>Letter>D	*>Letter>D	*>Letter>D	*>Letter>D	*>Letter>D
*>Label>Bridge	*>Label>Bridge	*>Label>Bridge	*>Label>Bridge	*>Label>Bridge	*>Label>Bridge	*>Label>Bridge	*>Label>Bridge	*>Label>Bridge
1A-M	A-:maj/5	1r	.	1r	.	.	142.06	newline
=76	=76	=76	=76	=76	=76	=76	=76	=76
1A-M	A-:maj/5	1r	.	1r	.	.	143.971	.
=77	=77	=77	=77	=77	=77	=77	=77	=77
1A-M	A-:maj/5	1r	.	1r	.	.	145.881	.
=78	=78	=78	=78	=78	=78	=78	=78	=78
1A-M	A-:maj/5	1r	.	1r	.	.	147.792	.
=79	=79	=79	=79	=79	=79	=79	=79	=79
2E-M	E-:maj	1r	.	1r	.	.	149.703	newline
2FM	F:maj	.	.	.	.	.	150.639	.
=80	=80	=80	=80	=80	=80	=80	=80	=80
2E-M	E-:maj	1r	.	1r	.	.	151.574	.
2FM	F:maj	.	.	.	.	.	152.51	.
=81	=81	=81	=81	=81	=81	=81	=81	=81
2E-M	E-:maj	4r	.	4r	.	.	153.445	.
.	.	8F	Can	8F	Can	.	.	.
.	.	8F	ya	8F	ya	.	.	.
2FM	F:maj	4G	hear	4G	hear	.	154.381	.
.	.	4g	me	4g	me	C	.	.
=82	=82	=82	=82	=82	=82	=82	=82	=82
2E-M	E-:maj	1f	_	[1f	_	.	155.316	.
2FM	F:maj	.	.	.	.	.	156.252	.
=83	=83	=83	=83	=83	=83	=83	=83	=83
*>Letter>C	*>Letter>C	*>Letter>C	*>Letter>C	*>Letter>C	*>Letter>C	*>Letter>C	*>Letter>C	*>Letter>C
*>Label>Chorus	*>Label>Chorus	*>Label>Chorus	*>Label>Chorus	*>Label>Chorus	*>Label>Chorus	*>Label>Chorus	*>Label>Chorus	*>Label>Chorus
1B-M	B-:maj	8f	sing-	1f_	_	(C	157.187	newline
.	.	8d	-ing	.	.	c)	.	.
.	.	8d	a	.	.	.	.	.
.	.	[8f	song,	.	.	B	.	.
.	.	4f]	_	.	.	.	.	.
.	.	8d	_	.	.	.	.	.
.	.	[8f	hum	.	.	.	.	.
=84	=84	=84	=84	=84	=84	=84	=84	=84
1B-M	B-:maj	8f]	_	2.f]	_	.	159.115	.
.	.	8f	ming	.	.	c	.	.
.	.	8f	a	.	.	.	.	.
.	.	8e-	song?	.	.	B	.	.
.	.	12d	_	.	.	.	.	.
.	.	[6c	_	.	.	.	.	.
.	.	4c]	_	4r	.	.	.	.
=85	=85	=85	=85	=85	=85	=85	=85	=85
2Cmm	C:min7	1r	.	8B-	Sing-	(C	161.043	.
.	.	.	.	[8A	-ing	c)	.	.
.	.	.	.	8A]	_	.	.	.
.	.	.	.	4~G	a	.	.	.
2FMm	F:7	.	.	.	.	.	162.008	.
.	.	.	.	[4.F	song	B	.	.
=86	=86	=86	=86	=86	=86	=86	=86	=86
2Cmm	C:min7	1r	.	4F]	_	.	162.972	.
.	.	.	.	4r	.	.	.	.
2FMm	F:7	.	.	2r	.	.	163.936	.
=87	=87	=87	=87	=87	=87	=87	=87	=87
1FMm	F:7	8c	Lo-	1r	.	.	164.9	newline
.	.	8c	-ving	.	.	c	.	.
.	.	8~c	a	.	.	.	.	.
.	.	[8c	song	.	.	B	.	.
.	.	4c]	_	.	.	.	.	.
.	.	4r	.	.	.	.	.	.
=88	=88	=88	=88	=88	=88	=88	=88	=88
1FMm	F:7	8c	lau-	1r	.	.	166.808	.
.	.	8c	-ghing	.	.	c	.	.
.	.	8c	a	.	.	.	.	.
.	.	[8B-	song	.	.	B	.	.
.	.	16B-]	_	.	.	.	.	.
.	.	[8.A	_	.	.	.	.	.
.	.	4A]	_	.	.	.	.	.
=89	=89	=89	=89	=89	=89	=89	=89	=89
1B-M	B-:maj	8r	.	1r	.	.	168.717	.
.	.	8G	sing-	.	.	(C	.	.
.	.	8F	-ing	.	.	c)	.	.
.	.	8~D	the	.	.	.	.	.
.	.	4F	song	.	.	B	.	.
.	.	4r	.	.	.	.	.	.
=90	=90	=90	=90	=90	=90	=90	=90	=90
1B-M	B-:maj	1r	.	1r	.	.	170.625	.
=91	=91	=91	=91	=91	=91	=91	=91	=91
2E-M	E-:maj	4G	Sing	1r	.	C	172.533	newline
.	.	8G	the	.	.	.	.	.
.	.	[8A	song	.	.	B	.	.
2DMm	D:7	8A]	_	.	.	.	173.492	.
.	.	[8c	_	.	.	.	.	.
.	.	8c]	_	.	.	.	.	.
.	.	8r	.	.	.	.	.	.
=92	=92	=92	=92	=92	=92	=92	=92	=92
2Gm	G:min	4B-	song	1r	.	B	174.451	.
.	.	8B-	a'	.	.	.	.	.
.	.	[8c	sing	.	.	C	.	.
2Cm	C:min	8c]	_	.	.	.	175.41	.
.	.	[8e-	_	.	.	.	.	.
.	.	8e-]	_	.	.	.	.	.
.	.	8r	.	.	.	.	.	.
=93	=93	=93	=93	=93	=93	=93	=93	=93
*	*	*	*	*clefG2	*	*	*	*
2B-M	B-:maj	4d	song	4f	song	B	176.37	.
.	.	4d	song	4f	song	B	.	.
2Gm	G:min	4d	song	4f	song	B	177.329	.
.	.	8e-	sing,	8g	sing,	C	.	.
.	.	[8c	_	[8e-	_	.	.	.
=94	=94	=94	=94	=94	=94	=94	=94	=94
2Cmm	C:min7	4c]	_	4e-]	_	.	178.288	.
.	.	4c	sing	4e-	sing	C	.	.
2FMm	F:7	4c	sing	4e-	sing	C	179.247	.
.	.	8d	sing	8f	sing	C	.	.
.	.	[8c	_	[8e-	_	.	.	.
=95	=95	=95	=95	=95	=95	=95	=95	=95
1B-MM	B-:maj7	8c]	_	8e-]	_	.	180.206	newline
.	.	16d	song	16f	song	B	.	.
.	.	16c	_	16e-	_	.	.	.
.	.	[4B-	_	[4d	_	.	.	.
.	.	4.B-]	_	4.d]	_	.	.	.
.	.	8r	.	8r	.	.	.	.
=96	=96	=96	=96	=96	=96	=96	=96	=96
1B-MM	B-:maj7	1r	.	1r	.	.	182.101	.
=97	=97	=97	=97	=97	=97	=97	=97	=97
2B-M	B-:maj	4d	song	4f	song	B	183.995	newline
.	.	4d	song	4f	song	B	.	.
2Gm	G:min	4d	song	4f	song	B	184.959	.
.	.	8e-	sing,	8g	sing,	C	.	.
.	.	[8c	_	[8e-	_	.	.	.
=98	=98	=98	=98	=98	=98	=98	=98	=98
2Cmm	C:min7	4c]	_	4e-]	_	.	185.923	.
.	.	4c	sing	4e-	sing	C	.	.
2FMm	F:7	4c	sing	4e-	sing	C	186.886	.
.	.	8d	sing	8f	sing	C	.	.
.	.	[8c	_	[8e-	_	.	.	.
=99	=99	=99	=99	=99	=99	=99	=99	=99
1B-MM	B-:maj7	4c]	_	4e-]	_	.	187.85	.
.	.	16d	song!	16f	song!	B	.	.
.	.	16c	_	16e-	_	.	.	.
.	.	[8B-	_	[8d	_	.	.	.
.	.	2B-]	_	2d]	_	.	.	.
=100	=100	=100	=100	=100	=100	=100	=100	=100
1B-MM	B-:maj7	1r	.	1r	.	.	189.778	.
=101	=101	=101	=101	=101	=101	=101	=101	=101
*>Letter>E	*>Letter>E	*>Letter>E	*>Letter>E	*>Letter>E	*>Letter>E	*>Letter>E	*>Letter>E	*>Letter>E
*>Label>Outro	*>Label>Outro	*>Label>Outro	*>Label>Outro	*>Label>Outro	*>Label>Outro	*>Label>Outro	*>Label>Outro	*>Label>Outro
1B-M	B-:maj	16d	Sing,	1r	.	C	191.705	newline
.	.	16c	_	.	.	.	.	.
.	.	[8B-	_	.	.	.	.	.
.	.	4B-]	_	.	.	.	.	.
.	.	12b-	sing,	.	.	C	.	.
.	.	12g	_	.	.	.	.	.
.	.	[12f	_	.	.	.	.	.
.	.	8f]	_	.	.	.	.	.
.	.	16d	song	.	.	B	.	.
.	.	16c	_	.	.	.	.	.
=102	=102	=102	=102	=102	=102	=102	=102	=102
*	*	*clefF4	*	*	*	*	*	*
2Cmm	C:min7	2B-	_	1r	.	.	193.616	.
.	.	8Gq	_	.	.	.	.	.
2FMm	F:7	4F	sing	.	.	C	194.572	.
.	.	8F	a	.	.	.	.	.
.	.	8E-q	_	.	.	.	.	.
.	.	[8D	song	.	.	B	.	.
=103	=103	=103	=103	=103	=103	=103	=103	=103
1B-MM	B-:maj7	2D]	_	1r	.	.	195.527	.
.	.	2r	.	.	.	.	.	.
=104	=104	=104	=104	=104	=104	=104	=104	=104
*	*	*clefG2	*	*	*	*	*	*
1B-MM	B-:maj7	4r	.	1r	.	.	197.439	.
.	.	8r	.	.	.	.	.	.
.	.	[8b-	Yeah,	.	.	.	.	.
.	.	8b-]	_	.	.	.	.	.
.	.	4g	you	.	.	.	.	.
.	.	[8f	can	.	.	.	.	.
=105	=105	=105	=105	=105	=105	=105	=105	=105
*	*	*clefF4	*	*	*	*	*	*
1B-M	B-:maj	8f]	_	[2.f	Sing	.	199.35	newline
.	.	4d	sing	.	.	C	.	.
.	.	8c	a'	.	.	.	.	.
.	.	16d	sing	.	.	C	.	.
.	.	16c	_	.	.	.	.	.
.	.	[8B-	_	.	.	.	.	.
.	.	8B-]	_	8f]	_	.	.	.
.	.	8cq	_	.	.	.	.	.
.	.	[8d	sing	8r	.	C	.	.
=106	=106	=106	=106	=106	=106	=106	=106	=106
2Cmm	C:min7	8.d]	_	[2c	song	.	201.254	.
.	.	[16B-	song	.	.	B	.	.
.	.	4B-]	_	.	.	.	.	.
2FMm	F:7	8r	.	8c]	_	.	202.206	.
.	.	8G	sing	8r	.	C	.	.
.	.	8B-	a	4r	.	.	.	.
.	.	16d	song	.	.	B	.	.
.	.	16c	_	.	.	.	.	.
=107	=107	=107	=107	=107	=107	=107	=107	=107
1B-MM	B-:maj7	2B-	_	1d	sing!	C	203.158	.
.	.	2r	.	.	.	.	.	.
=108	=108	=108	=108	=108	=108	=108	=108	=108
1B-MM	B-:maj7	1r	.	1r	.	.	205.063	.
=109	=109	=109	=109	=109	=109	=109	=109	=109
1B-M	B-:maj	8B-	Sing	[2f	Sing	C	206.967	newline
.	.	[8c	_	.	.	.	.	.
.	.	8c]	_	.	.	.	.	.
.	.	8d	a'	.	.	.	.	.
.	.	4d	sing	8f]	_	C	.	.
.	.	.	.	8r	.	.	.	.
.	.	8e-	a	4r	.	.	.	.
.	.	[8c	song	.	.	B	.	.
=110	=110	=110	=110	=110	=110	=110	=110	=110
2Cmm	C:min7	4c]	_	2c	song	.	208.854	.
.	.	4r	.	.	.	.	.	.
.	.	8Fq	_	.	.	.	.	.
2FMm	F:7	4G	sing	2r	.	C	209.797	.
.	.	8B-	a	.	.	.	.	.
.	.	8d	song	.	.	B	.	.
=111	=111	=111	=111	=111	=111	=111	=111	=111
1B-MM	B-:maj7	8e-	_	1d	sing!	C	210.74	.
.	.	16d	_	.	.	.	.	.
.	.	16c	_	.	.	.	.	.
.	.	[4B-	_	.	.	.	.	.
.	.	4B-]	_	.	.	.	.	.
.	.	4r	.	.	.	.	.	.
=112	=112	=112	=112	=112	=112	=112	=112	=112
1B-MM	B-:maj7	1r	.	1r	.	.	212.627	.
=113	=113	=113	=113	=113	=113	=113	=113	=113
.	.	8e-q	_	8e-q	_	.	.	.
1B-M	B-:maj	1f	Sing	1f	Sing	C	214.514	newline
1r;	1r	r;	.	r;	.	.	217.773	.
1r;	1r	r;	.	r;	.	.	219.272	.
*-	*-	*-	*-	*-	*-	*-	*-	*-
!!!BillboardChartDate: 1969/07/12
!!!BillboardPeak: 3
!!!BillboardWeeksOnChart: 13
!!!COC: Oliver
!!!ENC: Nathaniel Condit-Schultz
!!!EST: Awating manual error checking and editing.
!!!OTL: Good Morning Starshine
!!!RDF**chordsym: original McGill chord annotation + (implied pitch class set, with bass pitch in first position)
!!!RDF**harmony: **recip + pitch class of root + harmonic quality
!!!RDF**leadinstrument: original McGill primary instrumentation annotation
!!!RDF**phrase: newline = linebreak in original McGill transcription
!!!RDF**timestamp: McGill audio timestamp in seconds
!!!RDT: 2017/01/12/
!!!SampleActualRank: 3
!!!SampleID#: 0834
!!!SampleTargetRank: 4
!!!MBID: 29de7277-37c8-440d-a59d-075dfef0177b